offer/images/minus.svg

<svg height="5" viewBox="0 0 16 5" width="16" xmlns="http://www.w3.org/2000/svg"><path d="m775.906214 19045.4297h-14.062466c-.234375 0-.433593-.082-.597655-.2461s-.246093-.3633-.246093-.5976v-2.6719c0-.2344.082031-.4336.246093-.5977.164062-.164.36328-.2461.597655-.2461h14.062466c.234375 0 .433593.0821.597655.2461.164063.1641.246093.3633.246093.5977v2.6719c0 .2343-.08203.4335-.246093.5976-.164062.1641-.36328.2461-.597655.2461z" fill="#0c6cd4" fill-rule="evenodd" transform="translate(-761 -19041)"/></svg>

<?xml version="1.0" encoding="UTF-8"?>
<svg width="16px" height="5px" viewBox="0 0 16 5" version="1.1" xmlns="http://www.w3.org/2000/svg" xmlns:xlink="http://www.w3.org/1999/xlink">
    <!-- Generator: Sketch 52.2 (67145) - http://www.bohemiancoding.com/sketch -->
    <title>minus</title>
    <desc>Created with Sketch.</desc>
    <g id="Page-1" stroke="none" stroke-width="1" fill="none" fill-rule="evenodd">
        <g id="offer" transform="translate(-761.000000, -19041.000000)" fill="#0C6CD4">
            <path d="M775.906214,19045.4297 L761.843748,19045.4297 C761.609373,19045.4297 761.410155,19045.3477 761.246093,19045.1836 C761.082031,19045.0195 761,19044.8203 761,19044.586 L761,19041.9141 C761,19041.6797 761.082031,19041.4805 761.246093,19041.3164 C761.410155,19041.1524 761.609373,19041.0703 761.843748,19041.0703 L775.906214,19041.0703 C776.140589,19041.0703 776.339807,19041.1524 776.503869,19041.3164 C776.667932,19041.4805 776.749962,19041.6797 776.749962,19041.9141 L776.749962,19044.586 C776.749962,19044.8203 776.667932,19045.0195 776.503869,19045.1836 C776.339807,19045.3477 776.140589,19045.4297 775.906214,19045.4297 Z" id="minus"></path>
        </g>
    </g>
</svg>
